svgs/regular/crop.svg

<svg xmlns="http://www.w3.org/2000/svg" viewBox="0 0 512 512"><!-- Font Awesome Pro 6.0.0-alpha2 by @fontawesome - https://fontawesome.com License - https://fontawesome.com/license (Commercial License) --><path d="M512 408C512 421.25 501.25 432 488 432H432V488C432 501.25 421.25 512 408 512S384 501.25 384 488V161.938L161.938 384H352V432H120C97.938 432 80 414.062 80 392V128H24C10.75 128 0 117.25 0 104S10.75 80 24 80H80V24C80 10.75 90.75 0 104 0S128 10.75 128 24V350.062L350.062 128H160V80H398.062L471.031 7.031C480.406 -2.344 495.594 -2.344 504.969 7.031S514.344 31.594 504.969 40.969L432 113.938V384H488C501.25 384 512 394.75 512 408Z"/></svg>

<svg xmlns="http://www.w3.org/2000/svg" viewBox="0 0 512 512"><!--! Font Awesome Pro 6.0.0-alpha3 by @fontawesome - https://fontawesome.com License - https://fontawesome.com/license (Commercial License) --><path d="M511.1 408c0 13.25-10.75 24-23.1 24H432v56c0 13.25-10.75 24-24 24S384 501.3 384 488V161.9L161.9 384H352v48H120c-22.06 0-40-17.94-40-40V128H24C10.75 128 0 117.3 0 104S10.75 80 24 80H80V24C80 10.75 90.75 0 103.1 0S128 10.75 128 24v326.1L350.1 128H160V80h238.1l72.97-72.97c9.375-9.375 24.56-9.375 33.94 0s9.375 24.56 0 33.94L432 113.9V384h56C501.3 384 511.1 394.8 511.1 408z"/></svg>
